X:41
%%etbk:tnset id:14,pos:2,rep:3x,ant:
%%etbk:wsite http://www.thesession.org/tunes/display/363
%%etbk:pldat 2016-07-12T16:15,2016-03-17T18:47,2015-10-12T18:21,2014-12-28T15:00,2014-05-05T19:26,2014-03-09T15:06,2014-02-14T16:24,2013-11-26T15:50,2013-11-21T18:51,2013-11-16T14:32,2013-11-06T16:41,2013-10-08T16:48,2013-10-05T16:26,2013-10-04T17:59
T: Drunken Landlady, The
Z: Piano Box Version by Martin Fleischmann
H: Created 2013-02-19 /  Last Modified 2012-12-28
M: 4/4
L: 1/8
R: reel
K: Edor
|:"em"!5!B!1!E !3!(3E!2!E!1!E !5!BA!2!FA | !5!B!1!E!2!E!1!E !5!BAF!4!A | "D"!4!ABA!2!F !1!D2!2!FD | !2!F!4!A!3!A!4!A !5!BAFA |
"em"!5!B!1!E (3EEE !5!BA!2!FA | !5!BEEE BAF!4!A | "D"!1!A2Bc !4!d!1!A!5!e!3!c | !4!d!2!B!1!A!2!F "em"!1!E4:|
|:"em"!2!B!4!ee!3!d !4!e2de | "D"!5!f2!3!df !4!e!5!f!3!d!2!B | !1!AB!1!A!2!F !1!D2!2!FD | !2!F!4!A!3!AA !5!B!4!A!2!F!1!A |
"em"!2!B2!4!ed !4!eede | "D"!5!f2!3!df !4!ef!3!d!2!B | !1!A2Bc !4!d!1!A!5!e!3!c | !4!dB!1!A!2!F "em"!1!E4:|


